X: 22080
T: Knocknagow
R: jig
M: 6/8
K: Adorian
|:E|EAB cBc|EGF GAB|EAB cBc|d2d ecA|
EAB c2c|EGF GAB|eag edB|cAG A2:|
|:c|ece dcB|cAG EDE|AGA cBc|d2d Bcd|
d=fe dcB|cAG EDE|Ace aed|cAG A2:|

